X: 22690
T: Lamachree And Megrum
R: waltz
M: 3/4
K: Dminor
A,/D6|D4 E2|D E5|A6|G A5|D4 E2|D C5|A,4 A,2|
G,4 A,2|C4 D2|E G4|E/D6|A,6|C4 E2|D6|D6:|

